symbols/web/local_drink/materialsymbolsoutlined/local_drink_wght500gradN25fill1_24px.svg

<svg xmlns="http://www.w3.org/2000/svg" height="24" width="24"><path d="M7.2 21.95q-.875 0-1.5-.575T5 19.95L3.025 2.05h17.95L19 19.95q-.075.85-.7 1.425-.625.575-1.5.575ZM5.825 8.1h12.35l.4-3.9H5.425ZM12 18.825q1.175 0 2-.8t.825-1.95q0-1-.675-2.15T12 11.075q-1.475 1.7-2.15 2.85-.675 1.15-.675 2.15 0 1.15.838 1.95.837.8 1.987.8Z"/></svg>

<svg xmlns="http://www.w3.org/2000/svg" height="24" width="24"><path d="M7.2 21.95Q6.325 21.95 5.7 21.375Q5.075 20.8 5 19.95L3.025 2.05H20.975L19 19.95Q18.925 20.8 18.3 21.375Q17.675 21.95 16.8 21.95ZM5.825 8.1H18.175L18.575 4.2H5.425ZM12 18.825Q13.175 18.825 14 18.025Q14.825 17.225 14.825 16.075Q14.825 15.075 14.15 13.925Q13.475 12.775 12 11.075Q10.525 12.775 9.85 13.925Q9.175 15.075 9.175 16.075Q9.175 17.225 10.013 18.025Q10.85 18.825 12 18.825Z"/></svg>
